static/fa/svgs/solid/plate-wheat.svg

<svg xmlns="http://www.w3.org/2000/svg" viewBox="0 0 512 512"><!--! Font Awesome Free 6.1.1 by @fontawesome - https://fontawesome.com License - https://fontawesome.com/license/free (Icons: CC BY 4.0, Fonts: SIL OFL 1.1, Code: MIT License) Copyright 2022 Fonticons, Inc.--><path d="M256 112v16c0 8.8-7.2 16-16 16-44.2 0-80-35.8-80-80V48c0-8.84 7.2-16 16-16 44.2 0 80 35.82 80 80zM104 64c13.3 0 24 10.75 24 24 0 13.3-10.7 24-24 24H56c-13.25 0-24-10.7-24-24 0-13.25 10.75-24 24-24h48zm32 72c13.3 0 24 10.7 24 24s-10.7 24-24 24H24c-13.25 0-24-10.7-24-24s10.75-24 24-24h112zM32 232c0-13.3 10.75-24 24-24h48c13.3 0 24 10.7 24 24s-10.7 24-24 24H56c-13.25 0-24-10.7-24-24zM272 48c0-8.84 7.2-16 16-16 44.2 0 80 35.82 80 80v16c0 8.8-7.2 16-16 16-44.2 0-80-35.8-80-80V48zm208 64v16c0 8.8-7.2 16-16 16-44.2 0-80-35.8-80-80V48c0-8.84 7.2-16 16-16 44.2 0 80 35.82 80 80zm0 96c0 44.2-35.8 80-80 80-8.8 0-16-7.2-16-16v-16c0-44.2 35.8-80 80-80 8.8 0 16 7.2 16 16v16zm-128-32c8.8 0 16 7.2 16 16v16c0 44.2-35.8 80-80 80-8.8 0-16-7.2-16-16v-16c0-44.2 35.8-80 80-80zm-96 32c0 44.2-35.8 80-80 80-8.8 0-16-7.2-16-16v-16c0-44.2 35.8-80 80-80 8.8 0 16 7.2 16 16v16zM0 352c0-17.7 14.33-32 32-32h448c17.7 0 32 14.3 32 32 0 59.7-40.9 109.9-96.2 124 .1 1.3.2 2.7.2 4 0 17.7-14.3 32-32 32H128c-17.7 0-32-14.3-32-32 0-1.3.08-2.7.24-4C40.91 461.9 0 411.7 0 352z"/></svg>

<svg xmlns="http://www.w3.org/2000/svg" viewBox="0 0 512 512"><!--! Font Awesome Free 6.1.1 by @fontawesome - https://fontawesome.com License - https://fontawesome.com/license/free (Icons: CC BY 4.0, Fonts: SIL OFL 1.1, Code: MIT License) Copyright 2022 Fonticons, Inc. --><path d="M256 112V128C256 136.8 248.8 144 240 144C195.8 144 160 108.2 160 64V48C160 39.16 167.2 32 176 32C220.2 32 256 67.82 256 112zM104 64C117.3 64 128 74.75 128 88C128 101.3 117.3 112 104 112H56C42.75 112 32 101.3 32 88C32 74.75 42.75 64 56 64H104zM136 136C149.3 136 160 146.7 160 160C160 173.3 149.3 184 136 184H24C10.75 184 0 173.3 0 160C0 146.7 10.75 136 24 136H136zM32 232C32 218.7 42.75 208 56 208H104C117.3 208 128 218.7 128 232C128 245.3 117.3 256 104 256H56C42.75 256 32 245.3 32 232zM272 48C272 39.16 279.2 32 288 32C332.2 32 368 67.82 368 112V128C368 136.8 360.8 144 352 144C307.8 144 272 108.2 272 64V48zM480 112V128C480 136.8 472.8 144 464 144C419.8 144 384 108.2 384 64V48C384 39.16 391.2 32 400 32C444.2 32 480 67.82 480 112zM480 208C480 252.2 444.2 288 400 288C391.2 288 384 280.8 384 272V256C384 211.8 419.8 176 464 176C472.8 176 480 183.2 480 192V208zM352 176C360.8 176 368 183.2 368 192V208C368 252.2 332.2 288 288 288C279.2 288 272 280.8 272 272V256C272 211.8 307.8 176 352 176zM256 208C256 252.2 220.2 288 176 288C167.2 288 160 280.8 160 272V256C160 211.8 195.8 176 240 176C248.8 176 256 183.2 256 192V208zM0 352C0 334.3 14.33 320 32 320H480C497.7 320 512 334.3 512 352C512 411.7 471.1 461.9 415.8 476C415.9 477.3 416 478.7 416 480C416 497.7 401.7 512 384 512H128C110.3 512 96 497.7 96 480C96 478.7 96.08 477.3 96.24 476C40.91 461.9 0 411.7 0 352V352z"/></svg>
